X:1
T: Bonnie Isle o' Whalsey
C:
R:Reel
Q: 232
K:A
M:4/4
L:1/8
|:ed cA B2ed|cA Ac BEE2|ed cA B2ed|cA BG A4|
ed cA B2ed|cA Ac BEE2|ed cA B2ed|cA BG A4|
cd eg df ed|cA dc B=GG2|cd eg fd ed|cA BG A4|
cd eg df ed|cA dc B=GG2|cd ef ga ge|dB GB A4:|
